projects/ccf-eui/src/assets/icons/organ-icons/organ-icon-lung-right.svg

<svg width="64" height="64" viewBox="0 0 64 64" fill="currentColor" xmlns="http://www.w3.org/2000/svg">
<g clip-path="url(#clip0_1795_290)">
<path d="M27.5413 15.7653C27.5814 15.3637 27.5348 14.9582 27.4045 14.5763C27.2742 14.1943 27.0633 13.8448 26.7862 13.5515C26.509 13.2581 26.172 13.0278 25.798 12.876C25.4241 12.7243 25.0219 12.6547 24.6187 12.672C23.7343 12.6904 22.8802 12.9975 22.1867 13.5467C21.6279 13.9623 21.1067 14.4263 20.6293 14.9333C18.6739 16.889 16.916 19.0327 15.3813 21.3333C13.4964 24.1915 11.8278 27.1865 10.3893 30.2933C8.62681 34.0986 7.44736 38.1475 6.89066 42.304C5.90933 49.3867 6.464 53.44 8.49066 54.4853C11.1147 55.8507 21.2907 54.9333 26.1547 51.7547C26.7031 51.3895 27.1097 50.8473 27.3067 50.2187C27.4404 49.7312 27.5192 49.2303 27.5413 48.7253C27.5413 48.7253 27.5413 38.6987 27.5413 30.9973C27.5413 23.296 27.5413 16.064 27.5413 15.7653Z" />
<path d="M42.6667 22.272C41.432 21.8621 40.3565 21.076 39.5913 20.0238C38.8261 18.9716 38.4095 17.7063 38.4 16.4053V6.54935H34.1334V16.4053C34.1283 17.71 33.7138 18.9801 32.9483 20.0365C32.1828 21.0929 31.1049 21.8823 29.8667 22.2933V25.8347H42.6667V22.272Z" />
</g>
<defs>
<clipPath id="clip0_1795_290">
<rect width="64" height="64" />
</clipPath>
</defs>
</svg>

<svg xmlns="http://www.w3.org/2000/svg" width="64" height="64" fill="currentColor" viewBox="0 0 64 64"><g clip-path="url(#a)"><path d="M27.541 15.765a2.816 2.816 0 0 0-2.922-3.093 4.05 4.05 0 0 0-2.432.875c-.56.415-1.08.88-1.558 1.386a42 42 0 0 0-5.248 6.4 69 69 0 0 0-4.992 8.96 41.8 41.8 0 0 0-3.498 12.011c-.982 7.083-.427 11.136 1.6 12.181 2.624 1.366 12.8.448 17.664-2.73a2.88 2.88 0 0 0 1.152-1.536c.133-.488.212-.989.234-1.494v-32.96M42.667 22.272a6.23 6.23 0 0 1-4.267-5.867V6.55h-4.267v9.856a6.23 6.23 0 0 1-4.266 5.888v3.542h12.8z"/></g><defs><clipPath id="a"><path d="M0 0h64v64H0z"/></clipPath></defs></svg>
